assets/icons/qvision/text_rotation_angleup.svg

<svg width="24" height="24" viewBox="0 0 24 24" fill="none" xmlns="http://www.w3.org/2000/svg">
<g clip-path="url(#clip0_147_4858)">
<path d="M4.48999 4.21002L3.42999 5.27002L7.84999 16.4L9.32999 14.92L8.40999 12.73L11.95 9.19002L14.14 10.11L15.62 8.63002L4.48999 4.21002ZM7.57999 11.01L5.35999 6.14002L10.23 8.37002L7.57999 11.01ZM20.57 9.33002H16.33L17.74 10.74L8.89999 19.58L10.32 21L19.16 12.16L20.57 13.57V9.33002Z" fill="#323232"/>
</g>
<defs>
<clipPath id="clip0_147_4858">
<rect width="24" height="24" fill="white"/>
</clipPath>
</defs>
</svg>

<svg xmlns="http://www.w3.org/2000/svg" height="24" viewBox="0 0 24 24" width="24"><path d="M0 0h24v24H0z" fill="none"/><path d="M4.49 4.21L3.43 5.27 7.85 16.4l1.48-1.48-.92-2.19 3.54-3.54 2.19.92 1.48-1.48L4.49 4.21zm3.09 6.8L5.36 6.14l4.87 2.23-2.65 2.64zm12.99-1.68h-4.24l1.41 1.41-8.84 8.84L10.32 21l8.84-8.84 1.41 1.41V9.33z"/></svg>
